frontend/src/images/burger.svg

<svg width="26" height="17" viewBox="0 0 26 17" fill="none" xmlns="http://www.w3.org/2000/svg">
    <path fillRule="evenodd" clipRule="evenodd" d="M0 1.70996C0 1.15768 0.447715 0.709961 1 0.709961H25C25.5523 0.709961 26 1.15768 26 1.70996C26 2.26225 25.5523 2.70996 25 2.70996H1C0.447716 2.70996 0 2.26225 0 1.70996ZM0 8.70996C0 8.15768 0.447715 7.70996 1 7.70996H25C25.5523 7.70996 26 8.15768 26 8.70996C26 9.26225 25.5523 9.70996 25 9.70996H1C0.447716 9.70996 0 9.26225 0 8.70996ZM1 14.71C0.447715 14.71 0 15.1577 0 15.71C0 16.2622 0.447716 16.71 1 16.71H25C25.5523 16.71 26 16.2622 26 15.71C26 15.1577 25.5523 14.71 25 14.71H1Z" />
</svg>

<svg width="26" height="17" fill="none" xmlns="http://www.w3.org/2000/svg"><path d="M0 1.71a1 1 0 011-1h24a1 1 0 110 2H1a1 1 0 01-1-1zm0 7a1 1 0 011-1h24a1 1 0 110 2H1a1 1 0 01-1-1zm1 6a1 1 0 100 2h24a1 1 0 000-2H1z"/></svg>
